assets/icons/desktop/appearance.svg

<?xml version="1.0" encoding="UTF-8" standalone="no"?>
<svg viewBox="0 0 24 24" version="1.1" id="svg8" sodipodi:docname="appearance.svg" inkscape:version="1.1.2 (08b2f3d93c, 2022-04-05)" width="24" height="24"
   xmlns:inkscape="http://www.inkscape.org/namespaces/inkscape"
   xmlns:sodipodi="http://sodipodi.sourceforge.net/DTD/sodipodi-0.dtd"
   xmlns="http://www.w3.org/2000/svg"
   xmlns:svg="http://www.w3.org/2000/svg"
   xmlns:rdf="http://www.w3.org/1999/02/22-rdf-syntax-ns#"
   xmlns:cc="http://creativecommons.org/ns#"
   xmlns:dc="http://purl.org/dc/elements/1.1/">
   <metadata id="metadata14">
      <rdf:RDF>
         <cc:Work rdf:about="">
            <dc:format>image/svg+xml</dc:format>
            <dc:type rdf:resource="http://purl.org/dc/dcmitype/StillImage" />
         </cc:Work>
      </rdf:RDF>
   </metadata>
   <defs id="defs12" />
   <sodipodi:namedview pagecolor="#ffffff" bordercolor="#666666" borderopacity="1" objecttolerance="10" gridtolerance="10" guidetolerance="10" inkscape:pageopacity="0" inkscape:pageshadow="2" inkscape:window-width="1920" inkscape:window-height="1016" id="namedview10" showgrid="false" inkscape:snap-center="true" inkscape:zoom="2.8284271" inkscape:cx="-4.4194174" inkscape:cy="3.0052038" inkscape:window-x="0" inkscape:window-y="27" inkscape:window-maximized="1" inkscape:current-layer="svg8" inkscape:pagecheckerboard="0">
      <inkscape:grid type="xygrid" id="grid848" />
   </sodipodi:namedview>
   <path id="path1027" style="color:#000000;fill:#808080;stroke-width:1.25;-inkscape-stroke:none" d="m 18.982423,2 -4.279787,4.2822265 c 0.743652,0.4059492 1.359189,1.0214856 1.765138,1.7651367 l 5.532226,-5.5297851 v -0.5175781 z" />
   <path id="path3037" style="color:#000000;fill:#808080;fill-opacity:1;-inkscape-stroke:none" d="M 5.4550781 3.0019531 C 4.4864972 3.0109531 3.7372591 3.0752236 3.1171875 3.4472656 C 2.7038064 3.6952946 2.3972496 4.103173 2.2285156 4.609375 C 2.0597817 5.115576 2 5.7241761 2 6.5019531 L 2 14.501953 C 2 15.27973 2.059782 15.888329 2.2285156 16.394531 C 2.3972496 16.900733 2.7038064 17.308612 3.1171875 17.556641 C 3.7372591 17.928684 4.4864972 17.992972 5.4550781 18.001953 C 5.7802131 18.005253 6.1213187 18.003906 6.5 18.003906 L 9 18.003906 L 9 19.128906 C 9 21.003906 8.375 21.003906 7.125 21.003906 L 6 21.003906 L 6 22.003906 L 18 22.003906 L 18 21.003906 L 16.875 21.003906 C 15.625001 21.003906 15 21.003906 15 19.128906 L 15 18.003906 L 17.5 18.003906 C 17.878681 18.003906 18.219787 18.005253 18.544922 18.001953 C 19.513503 17.992953 20.262741 17.928683 20.882812 17.556641 C 21.296194 17.308612 21.60275 16.900733 21.771484 16.394531 C 21.940218 15.888329 22 15.27973 22 14.501953 L 22 6.5019531 C 22 5.7241761 21.94022 5.115576 21.771484 4.609375 C 21.734433 4.4982199 21.688686 4.3920373 21.638672 4.2910156 L 20.861328 5.0703125 C 20.949 5.405095 21 5.8707348 21 6.5019531 L 21 14.501953 C 21 15.224175 20.93478 15.740578 20.822266 16.078125 C 20.70975 16.415672 20.578806 16.570296 20.367188 16.697266 C 19.943952 16.951208 18.999999 17.001953 17.5 17.001953 L 6.5 17.001953 C 5.0000015 17.001953 4.056049 16.951204 3.6328125 16.697266 C 3.4211942 16.570296 3.2902501 16.415672 3.1777344 16.078125 C 3.0652186 15.740578 3 15.224175 3 14.501953 L 3 6.5019531 C 3 5.7797311 3.065219 5.2633282 3.1777344 4.9257812 C 3.2902501 4.5882333 3.4211942 4.4336116 3.6328125 4.3066406 C 4.056049 4.0526986 5.0000015 4.0019531 6.5 4.0019531 L 15.568359 4.0019531 L 16.566406 3.0019531 L 6.5 3.0019531 C 6.1250004 3.0019531 5.7779384 2.9989531 5.4550781 3.0019531 z " />
   <path id="path1317" style="fill:#808080;fill-rule:evenodd;stroke-linecap:square;stroke-linejoin:round" d="m 16,10 c 0,4 -6,4 -8,4 0,0 2,-1 2,-4 0,-1.6568542 1.343146,-3 3,-3 1.656854,0 3,1.3431458 3,3 z" sodipodi:nodetypes="ccssc" />
</svg>

<svg width="24" height="24" xmlns="http://www.w3.org/2000/svg"><path style="color:#000;fill:gray;stroke-width:1.25;-inkscape-stroke:none" d="m18.982 2-4.28 4.282a4.439 4.439 0 0 1 1.766 1.765L22 2.517V2z"/><path style="color:#000;fill:gray;fill-opacity:1;-inkscape-stroke:none" d="M5.455 3.002c-.969.009-1.718.073-2.338.445-.413.248-.72.656-.888 1.162C2.059 5.116 2 5.724 2 6.502v8c0 .778.06 1.386.229 1.893.168.506.475.914.888 1.162.62.372 1.37.436 2.338.445.325.003.666.002 1.045.002H9v1.125c0 1.875-.625 1.875-1.875 1.875H6v1h12v-1h-1.125c-1.25 0-1.875 0-1.875-1.875v-1.125h2.5c.379 0 .72.001 1.045-.002.969-.009 1.718-.073 2.338-.445.413-.248.72-.656.888-1.162.17-.507.229-1.115.229-1.893v-8c0-.778-.06-1.386-.229-1.893a2.503 2.503 0 0 0-.132-.318l-.778.78c.088.334.139.8.139 1.431v8c0 .722-.065 1.239-.178 1.576-.112.338-.243.492-.455.62-.423.253-1.367.304-2.867.304h-11c-1.5 0-2.444-.05-2.867-.305-.212-.127-.343-.281-.455-.619-.113-.337-.178-.854-.178-1.576v-8c0-.722.065-1.239.178-1.576.112-.338.243-.492.455-.62C4.056 4.054 5 4.003 6.5 4.003h9.068l.998-1H6.5c-.375 0-.722-.003-1.045 0z"/><path style="fill:gray;stroke-linecap:square;stroke-linejoin:round" d="M16 10c0 4-6 4-8 4 0 0 2-1 2-4a3 3 0 0 1 6 0z"/></svg>
